X:1
T:Standin In The Need of Prayer
T:March on
T:Copyright 1881 by The Riverside Press
T:Rodeheaver's Plantation Melodies
T:Rodeheaver's Plantation Melodies
Z:Rodeheaver's Plantation Melodies
%%score [ 1 2 3 4 ]
L:1/8
Q:1/4=70
M:2/4
K:F
V:1 treble nm="Soprano" snm="S."
V:2 treble nm="Alto" snm="A."
V:3 bass nm="Tenor" snm="T."
V:4 bass nm="Bass" snm="B."
V:1
 c2 c/d/c/B/ | AA A2 | FF F>G | Ac c2 | c2 c/d/c/B/ | AA A2 | FF A>G | F4 |: A4 | G3 A | BB B>G | %11
 AB c2 | c4 | c3 B | AA A>G | F4 :| %16
V:2
 c2 c/d/c/B/ | AA A2 | FF F>F | FA A2 | c2 c/d/c/B/ | AA A2 | FF F>E | F4 |: F4 | E3 F | GG G>E | %11
w: Way o- ver in the|E- gypt land.|You shall gain the|vic- to- ry|Way o- ver in the|E- gypt land.|You shall gain the|day.|March|on, and|you shall gain the|
 FG A2 | A4 | A3 G | FF F>E | F4 :| %16
w: vic- to- ry.|March|on and|you shall gain the|day.|
V:3
 z4 | z4 | A,A, A,>B, | CC C2 | z4 | z4 | A,A, C>B, | A,4 |: C4 | C3 C | CC C>C | CC C2 | F4 | %13
 F3 D | CC C>B, | A,4 :| %16
V:4
 z4 | z4 | F,F, F,>F, | F,F, F,2 | z4 | z4 | F,F, C,>C, | F,4 |: C,4 | C,3 C, | C,C, C,>C, | %11
 F,F, F,2 | F,4 | F,3 B,, | C,C, C,>C, | F,4 :| %16

